modules/hawcons-filled/icons/icon-32-face-stuck-out-tongue.svg

<?xml version="1.0" encoding="UTF-8" standalone="no"?>
<svg width="32px" height="32px" viewBox="0 0 32 32" version="1.1" xmlns="http://www.w3.org/2000/svg" xmlns:xlink="http://www.w3.org/1999/xlink" xmlns:sketch="http://www.bohemiancoding.com/sketch/ns">
    <!-- Generator: Sketch 3.0.3 (7891) - http://www.bohemiancoding.com/sketch -->
    <title>icon 32 face stuck out tongue</title>
    <desc>Created with Sketch.</desc>
    <defs></defs>
    <g id="Page-1" stroke="none" stroke-width="1" fill="none" fill-rule="evenodd" sketch:type="MSPage">
        <g id="icon-32-face-stuck-out-tongue" sketch:type="MSArtboardGroup" fill="#929292">
            <path d="M13,20 L13,22.5 C13,24.4329966 14.5709366,26 16.5,26 C18.4329966,26 20,24.4290634 20,22.5 L20,20 L22,20 L22,19 L11,19 L11,20 L13,20 L13,20 Z M16.5,29 C23.4035597,29 29,23.4035597 29,16.5 C29,9.59644029 23.4035597,4 16.5,4 C9.59644029,4 4,9.59644029 4,16.5 C4,23.4035597 9.59644029,29 16.5,29 Z M21,14 C21.5522848,14 22,13.5522848 22,13 C22,12.4477152 21.5522848,12 21,12 C20.4477152,12 20,12.4477152 20,13 C20,13.5522848 20.4477152,14 21,14 Z M14,20 L14,22.5 C14,23.8807119 15.1096621,25 16.5,25 C17.8807119,25 19,23.8903379 19,22.5 L19,20 L14,20 Z M11,13 L11,14 L15,14 L15,13 L11,13 Z" id="face-stuck-out-tongue" sketch:type="MSShapeGroup"></path>
        </g>
    </g>
</svg>

<svg width="32" height="32" xmlns="http://www.w3.org/2000/svg"><path d="M13 20v2.5c0 1.933 1.57 3.5 3.5 3.5 1.933 0 3.5-1.57 3.5-3.5V20h2v-1H11v1h2zm3.5 9C23.404 29 29 23.404 29 16.5S23.404 4 16.5 4 4 9.596 4 16.5 9.596 29 16.5 29zM21 14a1 1 0 1 0 0-2 1 1 0 0 0 0 2zm-7 6v2.5c0 1.38 1.11 2.5 2.5 2.5 1.38 0 2.5-1.11 2.5-2.5V20h-5zm-3-7v1h4v-1h-4z" fill="#929292" fill-rule="evenodd"/></svg>
